production/images/icons/truck.svg

<svg width="48" height="48" viewBox="0 0 48 48" fill="none" xmlns="http://www.w3.org/2000/svg">
<path d="M14.2195 30.0407C11.8846 30.0407 9.99082 31.9344 9.99082 34.2624C9.99082 36.5972 11.8846 38.4909 14.2195 38.4909C16.5475 38.4909 18.4412 36.5971 18.4412 34.2624C18.4412 31.9344 16.5475 30.0407 14.2195 30.0407ZM14.2195 36.38C13.052 36.38 12.1018 35.4299 12.1018 34.2624C12.1018 33.1018 13.052 32.1515 14.2195 32.1515C15.38 32.1515 16.3303 33.1017 16.3303 34.2624C16.3303 35.4299 15.3801 36.38 14.2195 36.38ZM10.5795 30.0425H1.11592C0.741098 30.0425 0.437255 30.3463 0.437255 30.7212V32.7804C0.437255 33.1553 0.741098 33.4591 1.11592 33.4591H8.70133C8.89945 32.1003 9.58526 30.8999 10.5795 30.0425ZM36.3122 30.0407C33.9841 30.0407 32.0905 31.9344 32.0905 34.2624C32.0905 36.5972 33.9842 38.4909 36.3122 38.4909C38.6471 38.4909 40.5339 36.5971 40.5339 34.2624C40.534 31.9344 38.6471 30.0407 36.3122 30.0407ZM36.3122 36.38C35.1448 36.38 34.2013 35.4299 34.2013 34.2624C34.2013 33.1018 35.1448 32.1515 36.3122 32.1515C37.4796 32.1515 38.4231 33.1017 38.4231 34.2624C38.4231 35.4299 37.4796 36.38 36.3122 36.38ZM47.3213 30.0407H45.672V20.8167C45.672 19.7376 45.3462 18.6787 44.7421 17.7827L40.6087 11.6606C39.6041 10.1674 37.9141 9.27145 36.1087 9.27145H29.7015C28.9548 9.27145 28.344 9.87553 28.344 10.6289V30.0407H17.8575C18.8485 30.9026 19.534 32.0973 19.7308 33.4615H30.8009C31.1878 30.767 33.5091 28.6832 36.3123 28.6832C39.1154 28.6832 41.4367 30.7669 41.8304 33.4615H47.3213C47.7015 33.4615 48 33.156 48 32.7827V30.7194C48 30.3461 47.7013 30.0407 47.3213 30.0407ZM40.561 19.0045H32.1041C31.7307 19.0045 31.4253 18.7058 31.4253 18.3257V13.6358C31.4253 13.2624 31.7309 12.957 32.1041 12.957H37.2557C37.4796 12.957 37.6901 13.0656 37.8123 13.242L41.1178 17.9388C41.4366 18.3868 41.1108 19.0045 40.561 19.0045ZM25.1131 28.6832H1.35741C0.607765 28.6832 0 28.0755 0 27.3258V21.2172C0 20.4674 0.607765 19.8597 1.35741 19.8597H25.1131C25.8628 19.8597 26.4706 20.4674 26.4706 21.2172V27.3258C26.4706 28.0755 25.8628 28.6832 25.1131 28.6832ZM10.8598 17.8235H1.35741C0.607765 17.8235 0 17.2157 0 16.466V10.3575C0 9.60776 0.607765 9 1.35741 9H10.8597C11.6094 9 12.2172 9.60776 12.2172 10.3575V16.466C12.2173 17.2157 11.6095 17.8235 10.8598 17.8235ZM25.1131 17.8235H15.6109C14.8612 17.8235 14.2534 17.2158 14.2534 16.4661V10.3575C14.2534 9.60776 14.8612 9.00008 15.6109 9.00008H25.1132C25.8629 9.00008 26.4707 9.60784 26.4707 10.3575V16.4661C26.4706 17.2157 25.8628 17.8235 25.1131 17.8235Z" fill="#2E390E"/>
</svg>

<svg width="48" height="48" viewBox="0 0 48 48" fill="none" xmlns="http://www.w3.org/2000/svg"><path d="M14.22 30.04a4.228 4.228 0 00-4.23 4.222 4.23 4.23 0 004.23 4.229 4.226 4.226 0 000-8.45zm0 6.34a2.12 2.12 0 01-2.118-2.118c0-1.16.95-2.11 2.117-2.11 1.161 0 2.111.95 2.111 2.11 0 1.168-.95 2.118-2.11 2.118zm-3.64-6.338H1.115a.679.679 0 00-.679.68v2.058c0 .375.304.68.679.68H8.7a5.57 5.57 0 011.878-3.418zm25.732-.001a4.226 4.226 0 000 8.45 4.223 4.223 0 004.222-4.229 4.222 4.222 0 00-4.222-4.221zm0 6.339a2.115 2.115 0 010-4.229 2.115 2.115 0 010 4.229zm11.01-6.34h-1.65v-9.223c0-1.08-.326-2.138-.93-3.034L40.61 11.66a5.424 5.424 0 00-4.5-2.39H29.7c-.746 0-1.357.605-1.357 1.358V30.04H17.858a5.582 5.582 0 011.873 3.42H30.8c.387-2.694 2.708-4.778 5.511-4.778s5.125 2.084 5.518 4.779h5.491c.38 0 .679-.306.679-.68V30.72a.676.676 0 00-.679-.678zM40.56 19.006h-8.457a.676.676 0 01-.679-.68v-4.69a.68.68 0 01.68-.678h5.15c.225 0 .435.109.557.285l3.306 4.697a.676.676 0 01-.557 1.066zm-15.448 9.678H1.357c-.75 0-1.357-.607-1.357-1.357v-6.109c0-.75.608-1.357 1.357-1.357h23.756c.75 0 1.358.607 1.358 1.357v6.109c0 .75-.608 1.357-1.358 1.357zM10.86 17.823H1.357c-.75 0-1.357-.607-1.357-1.357v-6.109C0 9.607.608 9 1.357 9h9.503c.75 0 1.357.608 1.357 1.357v6.109c0 .75-.607 1.357-1.357 1.357zm14.253 0h-9.502c-.75 0-1.358-.607-1.358-1.357v-6.109c0-.75.608-1.357 1.358-1.357h9.502c.75 0 1.358.608 1.358 1.357v6.11c0 .749-.608 1.357-1.358 1.357z" fill="#2E390E"/></svg>
